X: 121
T: Textless I Fa mi re ut re
N: Derived from Mar3032-Textless_I_Fa_mi_re_ut_re.krn
C: Johannes Martini
%%abc-version 2.0
%%abcx-abcm2ps-target-version 5.9.1 (29 Sep 2008)
%%abc-creator hum2abc beta
%%abcx-conversion-date 2019/02/17 07:19:43
%%abc-edited-by Jesse Rodin
%%abc-edited-by Chris Gage 11-13-2014
%%abcx-initial-encoding-date 2014/11/17/
%%humdrum-veritas 1542242243
%%humdrum-veritas-data 2731863424
%%linebreak <none>
%%barnumbers 0
L: 1/4
M: 2/1
Q: 1/2=120
V: 1 clef=treble
V: 2 clef=treble-8
V: 3 clef=treble-8
K: C
[V:1] c6BA | 
[V:2] z8 | 
[V:3] z8 | 
[V:1] G4A4 | 
[V:2] z8 | 
[V:3] z8 | 
[V:1] G2E4F2 | 
[V:2] z8 | 
[V:3] c6BA | 
[V:1] G4C4 | 
[V:2] z8 | 
[V:3] G4A4 | 
[V:1] G6F2 | 
[V:2] z8 | 
[V:3] G2E4F2 | 
[V:1] E2D2E4 | 
[V:2] z8 | 
[V:3] G4C2G2- | 
[V:1] D2C4B,2 | 
[V:2] z8 | 
[V:3] G2FED4 | 
[V:1] C4z4 | 
[V:2] c6B2 | 
[V:3] C4z4 | 
[V:1] c6B2 | 
[V:2] A4G4 | 
[V:3] F4E2G2 | 
[V:1] A4G4 | 
[V:2] A2F2G2E2 | 
[V:3] F2A2G2c2- | 
[V:1] A2F2G2E2 | 
[V:2] D4C4 | 
[V:3] c2B2c4- | 
[V:1] D4C4 | 
[V:2] z4F4 | 
[V:3] c2B2A4 | 
[V:1] z8 | 
[V:2] E2G2F2A2 | 
[V:3] G4A2F2 | 
[V:1] z4F4 | 
[V:2] G2c4B2 | 
[V:3] G2E2D4 | 
[V:1] E2G2F2A2 | 
[V:2] c4d2c2 | 
[V:3] C2E2D2F2 | 
[V:1] G2c4B2 | 
[V:2] e2f2d4 | 
[V:3] C2F2G4 | 
[V:1] c4z4 | 
[V:2] c4B2A2 | 
[V:3] C3DE2F2- | 
[V:1] A6B2 | 
[V:2] c2d4cB | 
[V:3] F2D2F2G2 | 
[V:1] c4B2A2 | 
[V:2] A4G2F2 | 
[V:3] A2c2d4 | 
[V:1] c2d4cB | 
[V:2] A2B3AG2- | 
[V:3] z2G2d4 | 
[V:1] A4G2F2 | 
[V:2] G2^F2G2A2 | 
[V:3] c4B2A2- | 
[V:1] A2B3AG2- | 
[V:2] c2d2G4 | 
[V:3] A2G3FE2 | 
[V:1] G2^F2G4 | 
[V:2] A4G4- | 
[V:3] D4E4 | 
[V:1] G2E4C2 | 
[V:2] G4z2C2- | 
[V:3] C2E3FG2 | 
[V:1] E2F2G4 | 
[V:2] C2D2E2C2- | 
[V:3] c2A2G2z2 | 
[V:1] C4G2A2 | 
[V:2] C2E4F2 | 
[V:3] C4c3e | 
[V:1] B4c4 | 
[V:2] G4C4 | 
[V:3] d4c4 | 
[V:1] G6F2 | 
[V:2] z2c4d2- | 
[V:3] c2C4F2 | 
[V:1] E2C2D4 | 
[V:2] dcc4B2 | 
[V:3] G2A2G4 | 
[V:1] C2E4D2- | 
[V:2] c4G4 | 
[V:3] C4z2G2 | 
[V:1] D2C4B,2 | 
[V:2] F2E2D4 | 
[V:3] A2G4F2 | 
[V:1] C4z4 | 
[V:2] C8- | 
[V:3] G4c3B | 
[V:1] C4D2E2- | 
[V:2] C4z4 | 
[V:3] A4G2c2- | 
[V:1] E2F2E2DC | 
[V:2] z4c4 | 
[V:3] c2d2c2A2 | 
[V:1] B,4G2A2 | 
[V:2] d2e4f2 | 
[V:3] G4E2D2 | 
[V:1] B2c2d2B2- | 
[V:2] e2dcB4 | 
[V:3] G2A2G4 | 
[V:1] B2A2G2FE | 
[V:2] G2A2B2c2 | 
[V:3] E2F2G2A2 | 
[V:1] D2G4^F2 | 
[V:2] d2cBA4 | 
[V:3] B2G2D4 | 
[V:1] G8 | 
[V:2] z4G4 | 
[V:3] d4d2e2- | 
[V:1] z4G4 | 
[V:2] E2F2G2C2- | 
[V:3] e2d2B2c2- | 
[V:1] E2F2G2C2- | 
[V:2] C2D2E3D | 
[V:3] c2A2G2z2 | 
[V:1] C2D2E3D | 
[V:2] E2F2G4 | 
[V:3] E2D2C4- | 
[V:1] E2F2G4 | 
[V:2] z2A2G2c2- | 
[V:3] C2D2E4 | 
[V:1] A4G2C2- | 
[V:2] c2d2e4 | 
[V:3] F3EC4 | 
[V:1] C2D2E4 | 
[V:2] f3ec4 | 
[V:3] F4E4 | 
[V:1] F2EDC2D2- | 
[V:2] d2cBA2G2 | 
[V:3] D4z2G2- | 
[V:1] D2C4B,2 | 
[V:2] B2c2d4 | 
[V:3] G2A2G4 | 
[V:1] C8 |]  
[V:2] c8 |]  
[V:3] C8 |]  



